status/symbolic/weather-snow-night-symbolic.svg

<?xml version="1.0" encoding="UTF-8" standalone="no"?>
<svg
   id="svg8"
   version="1.1"
   width="16"
   height="16"
   sodipodi:docname="weather-snow-night-symbolic.svg"
   inkscape:version="1.2.2 (b0a8486541, 2022-12-01)"
   xmlns:inkscape="http://www.inkscape.org/namespaces/inkscape"
   xmlns:sodipodi="http://sodipodi.sourceforge.net/DTD/sodipodi-0.dtd"
   xmlns="http://www.w3.org/2000/svg"
   xmlns:svg="http://www.w3.org/2000/svg"
   xmlns:rdf="http://www.w3.org/1999/02/22-rdf-syntax-ns#"
   xmlns:cc="http://creativecommons.org/ns#"
   xmlns:dc="http://purl.org/dc/elements/1.1/">
  <sodipodi:namedview
     id="namedview1629"
     pagecolor="#ffffff"
     bordercolor="#000000"
     borderopacity="0.25"
     inkscape:showpageshadow="2"
     inkscape:pageopacity="0.0"
     inkscape:pagecheckerboard="0"
     inkscape:deskcolor="#d1d1d1"
     showgrid="false"
     inkscape:zoom="47.559529"
     inkscape:cx="4.1421773"
     inkscape:cy="8.0425523"
     inkscape:window-width="1920"
     inkscape:window-height="1029"
     inkscape:window-x="0"
     inkscape:window-y="0"
     inkscape:window-maximized="1"
     inkscape:current-layer="svg8" />
  <metadata
     id="metadata14">
    <rdf:RDF>
      <cc:Work
         rdf:about="">
        <dc:format>image/svg+xml</dc:format>
        <dc:type
           rdf:resource="http://purl.org/dc/dcmitype/StillImage" />
      </cc:Work>
    </rdf:RDF>
  </metadata>
  <defs
     id="defs12" />
  <path
     d="m 12.265518,10.771987 c 0.13388,-0.240682 0.048,-0.544294 -0.19221,-0.679086 l -0.68675,-0.396502 0.2003,-0.05294 c 0.13111,-0.03378 0.24292,-0.119121 0.3099,-0.236772 0.22083,-0.387893 -0.13871,-0.84877 -0.56869,-0.729016 l -1.16608,0.311725 -1.6701296,-0.96425 1.6682696,-0.9637897 1.16579,0.312795 c 0.23423,0.06688 0.48258,-0.04483 0.58799,-0.264424 0.13568,-0.284526 -0.0226,-0.622086 -0.32806,-0.699781 l -0.20417,-0.05437 0.69054,-0.398061 c 0.0882,-0.04861 0.15916,-0.123412 0.20411,-0.213568 0.2234,-0.447168 -0.2752,-0.909199 -0.7041,-0.652464 l -0.68697,0.397779 0.0524,-0.200713 c 0.21277,-0.665609 -0.81541,-0.941708 -0.9647096,-0.259062 l -0.3128,1.165786 -1.66914,0.963286 -9.8e-4,-1.976237 0.85406,-0.853291 c 0.0362,-0.03497 0.0669,-0.07533 0.091,-0.119498 0.28154,-0.511325 -0.3919,-1.008366 -0.79754,-0.588634 l -0.14762,0.145733 5.6e-4,-0.792955 c 0.0289,-0.694772 -1.02879,-0.694201 -0.99912,5.06e-4 l -10e-4,0.793829 -0.14571,-0.147634 c -0.47196,-0.471983 -1.17976,0.235964 -0.7078,0.707947 l 0.85479,0.851471 -10e-4,1.978341 -1.84333,-1.064245 -0.31309,-1.165724 c -0.16416,-0.658191 -1.15271,-0.393308 -0.96578,0.25878 l 0.0543,0.199944 -0.51096,-0.295005 c -0.57735,-0.333333 -1.07732,0.532736 -0.5,0.866026 l 0.51096,0.295004 -0.2008,0.05381 c -0.65819,0.164158 -0.39331,1.152708 0.25878,0.96578 l 1.16658,-0.312582 1.8442,1.0647487 -1.84519,1.065543 -1.16578,-0.312795 c -0.66019,-0.200395 -0.9297,0.811025 -0.25734,0.965709 l 0.19971,0.0541 -0.51235,0.2954 c -0.61651,0.321646 -0.0881,1.237968 0.49912,0.86552 l 0.51421,-0.296637 -0.0551,0.201438 c -0.16242,0.568828 0.62333,0.898612 0.91553,0.384242 0.0225,-0.03884 0.0396,-0.0807 0.0509,-0.124191 l 0.31294,-1.168013 1.84519,-1.065552 -0.001,2.07983 -0.85407,0.853282 c -0.50493,0.470143 0.23418,1.211305 0.70572,0.707671 l 0.14862,-0.147464 -5.3e-4,0.590907 c -0.007,0.532195 0.71247,0.704788 0.94824,0.227608 0.0347,-0.07096 0.0522,-0.149128 0.0509,-0.228122 l -4.8e-4,-0.589175 0.1467,0.145904 c 0.23899,0.246397 0.64951,0.184173 0.80479,-0.121943 0.0998,-0.195451 0.0604,-0.433124 -0.097,-0.586005 l -0.85378,-0.853203 2.1e-4,-2.078098 1.67013,0.96425 0.31259,1.166589 c 0.1641496,0.658191 1.1527096,0.393308 0.9657796,-0.25878 l -0.0538,-0.200811 0.68676,0.396501 c 0.24241,0.143419 0.55531,0.05922 0.69221,-0.18694 z"
     font-weight="400"
     overflow="visible"
     style="color:#000000;font-weight:400;line-height:normal;font-family:sans-serif;text-indent:0;text-align:start;text-decoration:none;text-decoration-line:none;text-decoration-style:solid;text-decoration-color:#000000;text-transform:none;white-space:normal;overflow:visible;opacity:0.6;isolation:auto;mix-blend-mode:normal;fill:#555761;fill-rule:evenodd"
     id="path2-3" />
</svg>

<svg
        xmlns='http://www.w3.org/2000/svg'
        xmlns:svg='http://www.w3.org/2000/svg'
        id='svg8'
        width='16'
        height='16'>
  <path
          id='path2-3'
          opacity='0.6'
          color='rgb(0,0,0)'
          font-family='sans-serif'
          font-weight='400'
          fill='url(#gpa:foreground) #555761'
          fill-opacity='1'
          fill-rule='evenodd'
          overflow='visible'
          d='M 12.2655 10.772 C 12.3994 10.5313, 12.3135 10.2277, 12.0733 10.0929 L 11.3866 9.6964 L 11.5869 9.64346 C 11.718 9.60968, 11.8298 9.52434, 11.8968 9.40669 C 12.1176 9.01879, 11.758 8.55792, 11.3281 8.67767 L 10.162 8.9894 L 8.49186 8.02515 L 10.1601 7.06136 L 11.3259 7.37415 C 11.5601 7.44103, 11.8085 7.32932, 11.9139 7.10973 C 12.0496 6.8252, 11.8913 6.48764, 11.5858 6.40995 L 11.3817 6.35558 L 12.0722 5.95752 C 12.1604 5.90891, 12.2314 5.8341, 12.2763 5.74395 C 12.4997 5.29678, 12.0011 4.83475, 11.5722 5.09148 L 10.8853 5.48926 L 10.9377 5.28855 C 11.1504 4.62294, 10.1222 4.34684, 9.97295 5.02949 L 9.66015 6.19527 L 7.99101 7.15856 L 7.99003 5.18232 L 8.84409 4.32903 C 8.88029 4.29406, 8.91099 4.2537, 8.93509 4.20953 C 9.21663 3.69821, 8.54319 3.20117, 8.13755 3.6209 L 7.98993 3.76663 L 7.99049 2.97368 C 8.01939 2.27891, 6.9617 2.27948, 6.99137 2.97418 L 6.99037 3.76801 L 6.84466 3.62038 C 6.3727 3.1484, 5.6649 3.85634, 6.13686 4.32833 L 6.99165 5.1798 L 6.99065 7.15814 L 5.14732 6.09389 L 4.83423 4.92817 C 4.67007 4.26998, 3.68152 4.53486, 3.86845 5.18695 L 3.92275 5.38689 L 3.41179 5.09189 C 2.83444 4.75855, 2.33447 5.62462, 2.91179 5.95791 L 3.42275 6.25292 L 3.22195 6.30673 C 2.56376 6.47089, 2.82864 7.45944, 3.48073 7.27251 L 4.64731 6.95993 L 6.49151 8.02467 L 4.64632 9.09022 L 3.48054 8.77742 C 2.82035 8.57703, 2.55084 9.58845, 3.2232 9.74313 L 3.42291 9.79723 L 2.91056 10.0926 C 2.29405 10.4143, 2.82246 11.3306, 3.40968 10.9582 L 3.92389 10.6615 L 3.86879 10.863 C 3.70637 11.4318, 4.49212 11.7616, 4.78432 11.2472 C 4.80682 11.2084, 4.82392 11.1665, 4.83522 11.123 L 5.14816 9.95499 L 6.99335 8.88944 L 6.99235 10.9693 L 6.13828 11.8225 C 5.63335 12.2927, 6.37246 13.0339, 6.844 12.5302 L 6.99262 12.3828 L 6.99209 12.9737 C 6.98509 13.5059, 7.70456 13.6785, 7.94033 13.2013 C 7.97503 13.1303, 7.99253 13.0521, 7.99123 12.9732 L 7.99075 12.384 L 8.13745 12.5299 C 8.37644 12.7763, 8.78696 12.7141, 8.94224 12.4079 C 9.04204 12.2125, 9.00264 11.9748, 8.84524 11.8219 L 7.99146 10.9687 L 7.99167 8.89063 L 9.6618 9.85488 L 9.97439 11.0215 C 10.1385 11.6797, 11.1271 11.4148, 10.9402 10.7627 L 10.8864 10.5619 L 11.5731 10.9584 C 11.8155 11.1018, 12.1284 11.0176, 12.2653 10.7714 Z'
          text-decoration=''
          class="foreground"
          style='mix-blend-mode: normal; isolation: auto'>
  </path>
</svg>
